X: 26590
T: Mick McGarry's
R: jig
M: 6/8
K: Bminor
FDF FDF|FDF AGF|ECE ECE|A,CE BAG|
FDF FDF|FDF A2B|c2F FEF|DB,A, B,3:|
|:BcB dBB|fBB dcB|A3 cAA|eAA ABc|
d3 ede|fed cde|dcB AFE|DB,A, B,3:|

